X: 4092
M: C
L: 1/8
K: G
uD2 |:\
|:\
e<e ^d>e B>eG>B | E>e^d>e g>eB>G |\
[1 d<d ^c>d A>dF>A | D>d^c>d f>dA>F :|\
[2 g>ab>a (3gag (3fgf | e>gf>e d>cB>A |]


